public/cubicle-99.CUBE
# Copyright: (C) Copyright 2010-2020 by IWLTBAP SAS
# Cannot be resold, shared or otherwise redistributed
# Website: https://luts.iwltbap.com
TITLE "IWLTBAP 6800 (Rec.709, sRGB, DCI-P3)"
LUT_3D_SIZE 33
0.000000 0.000000 0.000000
0.030731 0.003937 0.004730
0.061646 0.007874 0.007874
0.092590 0.011047 0.010254
0.123993 0.012604 0.010254
0.155151 0.014191 0.010254
0.186493 0.014191 0.008667
0.217651 0.014191 0.006317
0.248840 0.013428 0.004730
0.279846 0.012634 0.003937
0.310730 0.011841 0.003174
0.341522 0.011841 0.002380
0.372253 0.011047 0.002380
0.402863 0.011047 0.002380
0.433350 0.010254 0.002380
0.463593 0.010254 0.002380
0.493683 0.010254 0.002380
0.523621 0.011047 0.002380
0.553284 0.011047 0.002380
0.582672 0.011841 0.002380
0.611816 0.014191 0.002380
0.640625 0.016541 0.002380
0.669159 0.020508 0.002380
0.697388 0.026001 0.003143
0.725281 0.033905 0.004730
0.752838 0.044739 0.007874
0.780151 0.059265 0.014984
0.807190 0.079102 0.027588
0.834106 0.104919 0.046875
0.860870 0.137451 0.074158
0.887634 0.176483 0.109344
0.914368 0.221039 0.151001
0.941162 0.268646 0.196167
0.003143 0.018127 0.022858
0.032318 0.022064 0.024445
0.062225 0.026001 0.025238
0.092163 0.029175 0.024445
0.123016 0.031525 0.022858
0.154388 0.032318 0.019714
0.185638 0.033112 0.016541
0.217316 0.033905 0.012604
0.248840 0.033905 0.009460
0.280243 0.033112 0.006287
0.311676 0.033112 0.004730
0.342896 0.033112 0.003143
0.374054 0.033112 0.002380
0.404999 0.033905 0.002380
0.435791 0.033905 0.001587
0.466248 0.034698 0.001587
0.496490 0.035492 0.001587
0.526459 0.036255 0.001587
0.556122 0.037048 0.001587
0.585510 0.038635 0.001587
0.614563 0.040222 0.001587
0.643372 0.043243 0.001587
0.671783 0.047577 0.002380
0.699890 0.053650 0.002380
0.727692 0.061646 0.003937
0.755188 0.072601 0.007874
0.782410 0.086945 0.014191
0.809448 0.106781 0.026794
0.836243 0.132385 0.046875
0.862976 0.164856 0.074646
0.889709 0.203613 0.110443
0.916443 0.247925 0.152832
0.943207 0.295135 0.198547
0.004730 0.036255 0.046173
0.033112 0.040222 0.044739
0.062225 0.044006 0.042511
0.091736 0.047577 0.040222
0.122040 0.049652 0.036255
0.153076 0.051666 0.030731
0.184570 0.052338 0.026001
0.216400 0.052979 0.020508
0.248535 0.052979 0.014984
0.280396 0.052979 0.010254
0.312378 0.053650 0.007080
0.344269 0.054291 0.004730
0.375854 0.054932 0.003143
0.407227 0.056183 0.002380
0.438293 0.057434 0.001587
0.469055 0.058044 0.001587
0.499481 0.059265 0.001587
0.529480 0.061035 0.001587
0.559235 0.062225 0.001587
0.588623 0.063934 0.001587
0.617584 0.066193 0.001587
0.646301 0.070007 0.001587
0.674683 0.074158 0.001587
0.702698 0.080536 0.002380
0.730377 0.088715 0.003937
0.757751 0.099915 0.007111
0.784912 0.114655 0.014191
0.811829 0.134186 0.026794
0.838562 0.159943 0.046875
0.865204 0.192108 0.075165
0.891846 0.230774 0.111511
0.918518 0.274719 0.154663
0.945312 0.321625 0.201294
0.006287 0.053650 0.069458
0.033112 0.058044 0.065643
0.061035 0.062225 0.061646
0.090454 0.066193 0.056824
0.120087 0.068939 0.051025
0.151001 0.071045 0.044006
0.182861 0.071564 0.037048
0.214966 0.072083 0.029968
0.247437 0.072083 0.022858
0.280121 0.072083 0.016541
0.312622 0.072601 0.011047
0.345093 0.073639 0.007874
0.377258 0.075165 0.004730
0.409088 0.076660 0.003143
0.440613 0.078125 0.002350
0.471680 0.080048 0.001587
0.502350 0.081940 0.001587
0.532593 0.083801 0.001587
0.562408 0.086060 0.001587
0.591919 0.088287 0.001587
0.620911 0.091309 0.001587
0.649567 0.095093 0.001587
0.677917 0.100311 0.001587
0.705811 0.106781 0.002350
0.733368 0.115356 0.003937
0.760681 0.126862 0.007080
0.787659 0.141724 0.014191
0.814453 0.161682 0.026794
0.841125 0.187317 0.046875
0.867676 0.219421 0.075653
0.894226 0.257843 0.112915
0.920776 0.301483 0.156708
0.947449 0.347992 0.204010
0.006317 0.070526 0.092987
0.032318 0.076172 0.087830
0.059845 0.080994 0.081940
0.088287 0.085602 0.075653
0.117737 0.089142 0.067841
0.148315 0.090881 0.059265
0.180023 0.091736 0.050354
0.212402 0.091736 0.040985
0.245422 0.091309 0.032318
0.278503 0.090881 0.024445
0.311798 0.090881 0.017334
0.344879 0.091309 0.011810
0.377808 0.092987 0.007874
0.410278 0.094666 0.004730
0.442322 0.097107 0.003143
0.473877 0.099518 0.002350
0.504913 0.101868 0.001587
0.535522 0.104523 0.001587
0.565521 0.107513 0.001587
0.595154 0.110413 0.001587
0.624298 0.114319 0.001587
0.653015 0.118744 0.001587
0.681244 0.124329 0.001587
0.709198 0.131500 0.002350
0.736664 0.140594 0.003937
0.763855 0.152557 0.007080
0.790771 0.167969 0.014191
0.817413 0.187958 0.026794
0.843903 0.213867 0.047577
0.870361 0.246063 0.076660
0.896729 0.284485 0.114319
0.923218 0.328003 0.158722
0.949707 0.374237 0.207031
0.005524 0.087830 0.116730
0.030731 0.094238 0.110779
0.057434 0.100311 0.104156
0.084717 0.105286 0.096313
0.113953 0.109711 0.087402
0.144226 0.112213 0.077148
0.176025 0.112915 0.066742
0.208527 0.112213 0.055573
0.241974 0.110779 0.044739
0.275665 0.109344 0.034698
0.309662 0.108612 0.026001
0.343536 0.108246 0.018127
0.377075 0.108978 0.012604
0.410278 0.110779 0.007874
0.442993 0.113251 0.004730
0.475159 0.116028 0.003143
0.506744 0.119080 0.002350
0.537750 0.122375 0.001587
0.568237 0.125916 0.001587
0.598053 0.129974 0.001587
0.627411 0.134491 0.001587
0.656281 0.139740 0.001587
0.684692 0.146149 0.001587
0.712585 0.154114 0.002350
0.740051 0.163879 0.003937
0.767212 0.176483 0.007080
0.793976 0.192505 0.014191
0.820557 0.213135 0.027588
0.846924 0.239288 0.048279
0.873230 0.271667 0.077637
0.899414 0.310272 0.116028
0.925720 0.353729 0.161224
0.952087 0.399902 0.210205
0.004730 0.104919 0.140869
0.029175 0.111847 0.134491
0.054291 0.118744 0.127472
0.080994 0.125275 0.118744
0.109344 0.130585 0.108978
0.139160 0.133911 0.097534
0.170532 0.135376 0.085602
0.203400 0.134491 0.072601
0.236847 0.132385 0.060455
0.271118 0.129669 0.048279
0.305725 0.126862 0.037048
0.340363 0.125275 0.026794
0.374817 0.124634 0.018921
0.408844 0.125580 0.012604
0.442383 0.127472 0.007874
0.475281 0.130280 0.005524
0.507507 0.133606 0.003143
0.539154 0.137421 0.002350
0.570007 0.141449 0.001587
0.600372 0.146149 0.001587
0.629974 0.151520 0.001587
0.659119 0.157715 0.001587
0.687683 0.164856 0.001587
0.715668 0.173523 0.002350
0.743286 0.184357 0.003937
0.770447 0.197540 0.007874
0.797180 0.214417 0.014984
0.823669 0.235718 0.028381
0.849976 0.262512 0.048981
0.876099 0.295532 0.079559
0.902222 0.334473 0.118408
0.928284 0.378113 0.164398
0.954468 0.424500 0.214081
0.003937 0.121735 0.165344
0.026794 0.129669 0.159210
0.050354 0.137146 0.152039
0.075653 0.144775 0.143402
0.103394 0.151245 0.132996
0.132690 0.156189 0.120728
0.163879 0.158447 0.107147
0.196564 0.158447 0.092987
0.230255 0.155914 0.078613
0.264954 0.152039 0.064514
0.299988 0.147797 0.051025
0.335449 0.143951 0.038635
0.370728 0.141449 0.028381
0.405701 0.140289 0.019714
0.440063 0.141144 0.013397
0.473877 0.143127 0.008667
0.506927 0.146149 0.005524
0.539276 0.149933 0.003143
0.570801 0.154633 0.002350
0.601624 0.159698 0.001587
0.631714 0.165588 0.001587
0.661255 0.172394 0.001587
0.690063 0.180450 0.001587
0.718384 0.189850 0.002350
0.746094 0.201477 0.003937
0.773315 0.215698 0.007874
0.800171 0.233246 0.015778
0.826660 0.255463 0.029175
0.852875 0.283173 0.051025
0.878967 0.316803 0.081940
0.904968 0.356232 0.121399
0.930908 0.400330 0.168213
0.956909 0.447052 0.218567
0.003174 0.138885 0.190033
0.023651 0.146698 0.184570
0.046173 0.154907 0.177826
0.070007 0.163391 0.169617
0.096710 0.171234 0.158966
0.125275 0.177826 0.146149
0.155914 0.182220 0.131500
0.188385 0.183289 0.116028
0.222076 0.181549 0.099518
0.256958 0.177368 0.083344
0.292480 0.171692 0.067841
0.328552 0.165802 0.053650
0.364746 0.160706 0.040222
0.400787 0.157196 0.029175
0.436188 0.155670 0.020508
0.470917 0.156189 0.013397
0.504852 0.157959 0.008667
0.537994 0.161194 0.005524
0.570312 0.165802 0.003143
0.601807 0.170990 0.002350
0.632477 0.177155 0.002350
0.662506 0.184570 0.001587
0.691711 0.193115 0.002350
0.720306 0.203217 0.002350
0.748352 0.215515 0.004730
0.775757 0.230438 0.008667
0.802734 0.248993 0.016541
0.829346 0.271973 0.030731
0.855591 0.300598 0.052979
0.881653 0.335022 0.084717
0.907593 0.375275 0.125275
0.933472 0.419922 0.172638
0.959351 0.467194 0.223816
0.002380 0.155914 0.214783
0.021271 0.163635 0.210205
0.041748 0.172150 0.204376
0.063934 0.181122 0.196747
0.089142 0.190033 0.186493
0.117065 0.198334 0.173767
0.146973 0.204742 0.158447
0.178925 0.208344 0.141724
0.212402 0.208160 0.123993
0.247284 0.204742 0.106049
0.283173 0.198730 0.088287
0.319794 0.191284 0.071564
0.356842 0.183716 0.056183
0.393738 0.177368 0.042511
0.430359 0.173065 0.030731
0.466248 0.170776 0.021271
0.501251 0.170776 0.014191
0.535400 0.172607 0.008667
0.568573 0.176239 0.005524
0.600830 0.181122 0.003937
0.632202 0.187317 0.002380
0.662781 0.194733 0.002350
0.692566 0.203613 0.002350
0.721588 0.214233 0.003143
0.749908 0.227051 0.004730
0.777649 0.242615 0.009460
0.804871 0.261932 0.018127
0.831604 0.285797 0.033112
0.857971 0.315063 0.056183
0.884094 0.350372 0.088715
0.910034 0.391357 0.129974
0.935852 0.436737 0.178284
0.961731 0.484558 0.230103
0.001587 0.173065 0.239441
0.018127 0.180450 0.235870
0.037048 0.188599 0.231262
0.057434 0.197754 0.224670
0.081482 0.207397 0.215332
0.108246 0.217316 0.203033
0.137421 0.225861 0.187744
0.168671 0.232086 0.170319
0.201874 0.234741 0.151245
0.236359 0.233246 0.131500
0.272247 0.228241 0.112213
0.309204 0.220306 0.092987
0.346863 0.211121 0.075165
0.384735 0.202057 0.058655
0.422455 0.194336 0.044006
0.459656 0.188812 0.031525
0.495911 0.185852 0.022064
0.531219 0.185425 0.014191
0.565430 0.187317 0.009460
0.598633 0.191071 0.005524
0.630859 0.196747 0.003937
0.662170 0.203979 0.003143
0.692566 0.212952 0.002380
0.722107 0.223816 0.003143
0.750885 0.236847 0.005524
0.778992 0.252777 0.010254
0.806427 0.272644 0.019714
0.833435 0.297150 0.035492
0.859955 0.327240 0.059845
0.886230 0.363190 0.093414
0.912292 0.404938 0.135681
0.938141 0.450928 0.184570
0.963989 0.499298 0.237030
0.001587 0.190033 0.264069
0.015778 0.196960 0.261505
0.032318 0.204742 0.257996
0.051025 0.213684 0.252625
0.073639 0.223633 0.244659
0.099121 0.234253 0.233246
0.127167 0.244812 0.218719
0.157715 0.253540 0.201080
0.190247 0.259460 0.181366
0.224487 0.261353 0.160217
0.260193 0.258575 0.138885
0.297028 0.252014 0.118073
0.335022 0.242462 0.097931
0.373688 0.231445 0.079102
0.412476 0.220673 0.061646
0.450928 0.211487 0.046173
0.488556 0.204742 0.033112
0.525238 0.200897 0.022858
0.560699 0.200104 0.014984
0.595093 0.202057 0.009460
0.628326 0.206451 0.006287
0.660522 0.213135 0.003937
0.691681 0.221558 0.003143
0.721832 0.232422 0.003937
0.751221 0.245605 0.006287
0.779785 0.261780 0.011047
0.807617 0.281982 0.021271
0.834900 0.306915 0.038635
0.861694 0.337616 0.063934
0.888123 0.374176 0.098328
0.914307 0.416473 0.141449
0.940308 0.462952 0.191284
0.966248 0.511841 0.244659
0.000793 0.207031 0.288513
0.013397 0.213684 0.286835
0.028381 0.220856 0.284363
0.045441 0.229095 0.280243
0.065643 0.238953 0.273743
0.089600 0.249908 0.264069
0.116730 0.261505 0.250671
0.146423 0.272522 0.233765
0.178253 0.281586 0.213715
0.212036 0.287109 0.191711
0.247131 0.288116 0.168915
0.283691 0.284363 0.146454
0.321625 0.276215 0.124329
0.360626 0.264954 0.102997
0.400177 0.252167 0.083344
0.439850 0.239594 0.065063
0.479004 0.228760 0.048981
0.517242 0.220856 0.034698
0.554260 0.216400 0.023651
0.589966 0.215332 0.015778
0.624390 0.217468 0.010254
0.657623 0.222595 0.006287
0.689758 0.230438 0.004730
0.720764 0.240723 0.004730
0.750793 0.253845 0.007080
0.779907 0.270020 0.012604
0.808228 0.290466 0.023651
0.835876 0.315796 0.041748
0.863037 0.346771 0.067841
0.889709 0.383942 0.103760
0.916046 0.426605 0.147797
0.942322 0.473541 0.198364
0.968384 0.522827 0.252350
0.000793 0.224152 0.312744
0.011810 0.230255 0.311676
0.024445 0.236847 0.310150
0.039429 0.244507 0.307281
0.058044 0.253693 0.302460
0.080536 0.264374 0.294525
0.106415 0.276489 0.282928
0.135071 0.289032 0.267365
0.166046 0.300720 0.247925
0.198944 0.309906 0.225891
0.233582 0.315186 0.202057
0.269592 0.315430 0.177826
0.307159 0.310394 0.153870
0.346039 0.300720 0.130585
0.385925 0.287628 0.108612
0.426514 0.273071 0.087830
0.466980 0.258728 0.068390
0.506805 0.246368 0.051025
0.545502 0.237183 0.036255
0.582947 0.232086 0.025238
0.618866 0.230927 0.016541
0.653381 0.233765 0.010254
0.686646 0.239929 0.007080
0.718628 0.249146 0.006287
0.749512 0.261810 0.008667
0.779297 0.277985 0.014191
0.808228 0.298523 0.026001
0.836426 0.324005 0.044739
0.863953 0.355255 0.072601
0.890991 0.392792 0.108978
0.917664 0.435822 0.154114
0.944092 0.483154 0.205536
0.970428 0.532867 0.260193
0.000793 0.241180 0.336731
0.010254 0.246826 0.336090
0.020508 0.252930 0.335236
0.034698 0.260040 0.333496
0.051666 0.268341 0.330109
0.072083 0.278381 0.324097
0.096313 0.290192 0.314728
0.123688 0.303314 0.301117
0.153595 0.316803 0.283325
0.185852 0.329010 0.261810
0.219788 0.338440 0.237518
0.255188 0.343414 0.212067
0.291992 0.342896 0.186493
0.330444 0.336731 0.161469
0.370270 0.325439 0.137146
0.411133 0.310608 0.113953
0.452576 0.294006 0.092163
0.493896 0.277832 0.071564
0.534393 0.264069 0.053650
0.573639 0.253998 0.038635
0.611298 0.248383 0.026001
0.647461 0.247284 0.017334
0.682037 0.250824 0.011810
0.715210 0.258453 0.009460
0.747131 0.270020 0.011047
0.777832 0.285797 0.016541
0.807495 0.306091 0.028381
0.836273 0.331665 0.048279
0.864380 0.363190 0.076660
0.891846 0.400970 0.114319
0.918945 0.444397 0.159943
0.945740 0.492096 0.212250
0.972321 0.542053 0.267639
0.000793 0.258148 0.360229
0.008667 0.263519 0.360138
0.018127 0.269318 0.359741
0.029968 0.275665 0.358856
0.045441 0.283173 0.356750
0.064514 0.292236 0.352631
0.086517 0.303314 0.345428
0.112549 0.316132 0.334381
0.141449 0.330444 0.318787
0.172607 0.344788 0.298767
0.205902 0.357635 0.275146
0.240723 0.367279 0.248993
0.276764 0.371979 0.221893
0.314362 0.370728 0.195160
0.353516 0.363281 0.168915
0.394287 0.350464 0.143677
0.436127 0.333710 0.119751
0.478455 0.315186 0.096710
0.520569 0.297272 0.075165
0.561737 0.282104 0.056183
0.601349 0.271118 0.040222
0.639435 0.265228 0.027588
0.675659 0.264801 0.018921
0.710327 0.269470 0.014191
0.743469 0.279053 0.014191
0.775269 0.293640 0.019714
0.805847 0.313446 0.031525
0.835449 0.338898 0.051666
0.864166 0.370667 0.080536
0.892273 0.408600 0.118744
0.919800 0.452332 0.165588
0.946991 0.500336 0.218567
0.974121 0.550720 0.274719
0.000793 0.274994 0.383392
0.007080 0.280121 0.383575
0.015778 0.285522 0.383667
0.026794 0.291473 0.383392
0.040222 0.298248 0.382294
0.057434 0.306335 0.379700
0.078125 0.316223 0.374725
0.102234 0.328339 0.366333
0.129333 0.342468 0.353546
0.159454 0.357758 0.335907
0.191895 0.373108 0.313812
0.226044 0.386566 0.288147
0.261505 0.396301 0.260193
0.298401 0.400787 0.231628
0.336639 0.398682 0.203613
0.376617 0.390015 0.176483
0.418152 0.375488 0.150482
0.460907 0.356842 0.125275
0.504150 0.336517 0.101471
0.546967 0.316925 0.079102
0.588715 0.300476 0.059265
0.628845 0.288910 0.042511
0.667114 0.283051 0.029968
0.703522 0.283447 0.022064
0.738159 0.289948 0.019714
0.771301 0.302460 0.023651
0.803040 0.320953 0.034698
0.833618 0.345856 0.054932
0.863159 0.377380 0.084259
0.891968 0.415497 0.123016
0.920197 0.459534 0.170319
0.948029 0.507965 0.224152
0.975647 0.558777 0.281189
0.000000 0.291748 0.406311
0.006287 0.296631 0.406647
0.013397 0.301849 0.407074
0.023651 0.307404 0.407257
0.036255 0.313568 0.406891
0.051666 0.320831 0.405548
0.070526 0.329559 0.402435
0.092590 0.340485 0.396515
0.118073 0.353729 0.386749
0.146423 0.369019 0.372284
0.177826 0.385559 0.352631
0.211304 0.401825 0.328369
0.246216 0.415802 0.300629
0.282379 0.425629 0.270996
0.319916 0.429626 0.241211
0.358856 0.426697 0.211884
0.399567 0.416656 0.183960
0.441864 0.400543 0.156952
0.485504 0.380157 0.130890
0.529633 0.357941 0.106049
0.573181 0.336945 0.083344
0.615479 0.319336 0.062805
0.655975 0.307434 0.046173
0.694458 0.302094 0.033905
0.730957 0.303925 0.028381
0.765686 0.312988 0.029968
0.798767 0.329132 0.039429
0.830566 0.352722 0.058044
0.861206 0.383667 0.087402
0.890930 0.421661 0.126221
0.919952 0.465912 0.174225
0.948578 0.514771 0.228760
0.976959 0.566040 0.286713
0.000000 0.308258 0.428772
0.005524 0.313202 0.429413
0.012604 0.318085 0.429962
0.021271 0.323334 0.430450
0.032318 0.329010 0.430695
0.046173 0.335571 0.430206
0.063385 0.343323 0.428619
0.083801 0.352905 0.424927
0.107513 0.364929 0.418060
0.134186 0.379395 0.406891
0.164124 0.395966 0.390472
0.196564 0.413635 0.368744
0.230927 0.430756 0.342377
0.266632 0.445160 0.312622
0.303436 0.455109 0.281342
0.341431 0.458496 0.250214
0.380981 0.454559 0.220154
0.422394 0.443237 0.191284
0.465546 0.425476 0.163666
0.510040 0.403381 0.136871
0.554810 0.379608 0.111481
0.599060 0.357269 0.087830
0.641815 0.339111 0.067291
0.682678 0.327148 0.051025
0.721344 0.322784 0.040985
0.758057 0.326813 0.038635
0.792847 0.339203 0.045441
0.826050 0.360260 0.062225
0.857971 0.389740 0.090027
0.888916 0.427155 0.128723
0.919006 0.471436 0.176941
0.948578 0.520630 0.232117
0.977905 0.572479 0.290985
0.000000 0.324677 0.451050
0.004730 0.329437 0.451813
0.011047 0.334381 0.452484
0.018921 0.339294 0.453247
0.029175 0.344696 0.453827
0.042511 0.350677 0.454041
0.058044 0.357544 0.453461
0.076660 0.366028 0.451508
0.097931 0.376617 0.447205
0.122711 0.389740 0.439240
0.150726 0.405518 0.426605
0.181976 0.423370 0.408264
0.215698 0.442078 0.384308
0.250977 0.459930 0.355743
0.287231 0.474731 0.324127
0.324554 0.484467 0.291351
0.362976 0.487335 0.259186
0.403046 0.482422 0.228271
0.445099 0.469727 0.198944
0.489044 0.450470 0.170563
0.534210 0.426849 0.143127
0.579681 0.401672 0.117065
0.624542 0.378387 0.093414
0.667847 0.359863 0.073120
0.708984 0.348419 0.058655
0.747986 0.345856 0.051666
0.784790 0.352814 0.054291
0.819824 0.369781 0.067841
0.853302 0.396515 0.093414
0.885620 0.432434 0.130890
0.917053 0.476074 0.178497
0.947876 0.525421 0.233948
0.978394 0.577667 0.293518
0.000000 0.341003 0.473053
0.004730 0.345734 0.473907
0.010254 0.350494 0.474823
0.017334 0.355347 0.475739
0.026794 0.360443 0.476501
0.039429 0.366028 0.477142
0.053650 0.372284 0.477356
0.070526 0.379791 0.476715
0.090027 0.389038 0.474396
0.112549 0.400604 0.469360
0.138580 0.415070 0.460266
0.167969 0.432007 0.445862
0.200500 0.451111 0.425476
0.235077 0.470825 0.399323
0.271271 0.489380 0.368530
0.308136 0.504456 0.335144
0.345825 0.513947 0.301117
0.384583 0.516113 0.268066
0.425079 0.510101 0.236542
0.467651 0.496246 0.206665
0.512207 0.475525 0.177826
0.558075 0.450531 0.150208
0.604309 0.424347 0.123993
0.649719 0.400452 0.100311
0.693420 0.382019 0.081482
0.734985 0.371887 0.070007
0.774231 0.371796 0.067291
0.811401 0.382843 0.076660
0.846802 0.405182 0.098328
0.880859 0.438141 0.132996
0.913879 0.480408 0.179382
0.946228 0.529266 0.234436
0.978271 0.581482 0.294037
0.000000 0.357147 0.494843
0.003937 0.361725 0.495758
0.009460 0.366425 0.496826
0.016541 0.371307 0.497833
0.025238 0.376251 0.498810
0.036255 0.381561 0.499756
0.049652 0.387299 0.500458
0.065063 0.394043 0.500732
0.082886 0.402252 0.499939
0.103760 0.412323 0.497162
0.127472 0.425079 0.491333
0.154907 0.440796 0.480957
0.185638 0.459137 0.464691
0.219421 0.479431 0.442169
0.255188 0.500153 0.413727
0.291992 0.519135 0.380890
0.329224 0.534210 0.345856
0.367065 0.543243 0.310638
0.406128 0.544678 0.276917
0.446899 0.537689 0.244995
0.489929 0.522583 0.214813
0.535095 0.500732 0.185883
0.581635 0.474670 0.157959
0.628571 0.447754 0.132111
0.674500 0.423706 0.109711
0.718750 0.406128 0.093414
0.760742 0.397919 0.085602
0.800446 0.401398 0.088715
0.838104 0.417389 0.105652
0.874237 0.445770 0.136261
0.909241 0.484955 0.179810
0.943420 0.532257 0.233276
0.977264 0.583557 0.292114
0.000000 0.373138 0.516418
0.003937 0.377747 0.517487
0.008667 0.382385 0.518616
0.014984 0.387115 0.519684
0.023651 0.392090 0.520874
0.034698 0.397217 0.522003
0.046875 0.402710 0.523071
0.061646 0.408844 0.523956
0.077637 0.416138 0.524200
0.096313 0.425079 0.523193
0.118073 0.436188 0.520020
0.143402 0.450165 0.513245
0.172150 0.467133 0.501312
0.204376 0.486877 0.483154
0.239288 0.508240 0.458344
0.275787 0.529694 0.427734
0.313080 0.549042 0.392975
0.350586 0.563904 0.356354
0.388489 0.572479 0.320282
0.427490 0.573120 0.285950
0.468414 0.565186 0.253693
0.511902 0.549042 0.223480
0.557617 0.526245 0.194550
0.604828 0.499481 0.167267
0.652405 0.472198 0.142273
0.699005 0.448578 0.121735
0.743805 0.432587 0.108612
0.786438 0.427399 0.106049
0.826904 0.435333 0.116730
0.865479 0.457031 0.141724
0.902771 0.491211 0.181122
0.939148 0.534912 0.231293
0.975159 0.583649 0.287628
0.000000 0.389130 0.537872
0.003937 0.393677 0.539093
0.007874 0.398346 0.540222
0.014191 0.403046 0.541412
0.022858 0.407928 0.542725
0.033112 0.412994 0.544098
0.044739 0.418304 0.545319
0.058655 0.424194 0.546570
0.073639 0.430756 0.547577
0.090881 0.438690 0.547791
0.110779 0.448517 0.546631
0.133606 0.460693 0.542847
0.159943 0.475952 0.534912
0.190247 0.494232 0.521454
0.223816 0.515228 0.501190
0.259735 0.537567 0.474121
0.297028 0.559570 0.441254
0.334473 0.578918 0.404663
0.371887 0.593506 0.366791
0.409698 0.601349 0.329803
0.448578 0.601196 0.295166
0.489716 0.592407 0.262939
0.533600 0.575500 0.232941
0.579834 0.552002 0.204559
0.627716 0.524811 0.178040
0.676025 0.497894 0.154663
0.723328 0.475372 0.137146
0.768951 0.461945 0.128723
0.812500 0.460693 0.132385
0.854065 0.473694 0.151001
0.894043 0.500458 0.183960
0.933014 0.538177 0.228943
0.971436 0.581879 0.280518
0.000000 0.404938 0.559326
0.003143 0.409454 0.560486
0.007874 0.414154 0.561798
0.013397 0.418884 0.563049
0.022064 0.423767 0.564453
0.031525 0.428864 0.565918
0.043243 0.434082 0.567383
0.056824 0.439789 0.568909
0.071045 0.446075 0.570312
0.086945 0.453247 0.571350
0.105286 0.461945 0.571625
0.125916 0.472626 0.570190
0.150208 0.485992 0.565704
0.177826 0.502502 0.556519
0.209473 0.522064 0.541168
0.244171 0.544159 0.518829
0.281036 0.567261 0.489441
0.318542 0.589478 0.454437
0.356049 0.608704 0.416138
0.393158 0.622803 0.377167
0.430603 0.629944 0.339630
0.469421 0.628937 0.304901
0.510681 0.619446 0.273071
0.554840 0.601929 0.243408
0.601807 0.578094 0.215881
0.650421 0.551147 0.190887
0.699524 0.525055 0.170074
0.747803 0.504730 0.156433
0.794556 0.494568 0.153870
0.839417 0.497620 0.164398
0.882629 0.514587 0.189636
0.924561 0.543182 0.227081
0.965881 0.578430 0.271271
0.000000 0.420685 0.580566
0.003143 0.425323 0.581879
0.007874 0.429962 0.583160
0.013397 0.434784 0.584564
0.021271 0.439697 0.586029
0.031525 0.444855 0.587646
0.042511 0.450165 0.589325
0.055573 0.455750 0.591034
0.069458 0.461792 0.592712
0.084717 0.468567 0.594360
0.101471 0.476349 0.595520
0.120728 0.485840 0.595673
0.142548 0.497498 0.593781
0.167725 0.512024 0.588440
0.196960 0.529816 0.577881
0.229767 0.550568 0.560608
0.265503 0.573456 0.535950
0.302826 0.597046 0.504272
0.340363 0.619324 0.467285
0.377472 0.638123 0.427582
0.414154 0.651459 0.387848
0.451141 0.657928 0.350189
0.489777 0.656250 0.315796
0.531219 0.646210 0.284363
0.575958 0.628418 0.255646
0.623566 0.604767 0.229431
0.673096 0.578522 0.206482
0.723328 0.554230 0.189026
0.772919 0.536560 0.180481
0.821228 0.529633 0.183533
0.867920 0.535217 0.199524
0.913361 0.551849 0.227081
0.958069 0.575012 0.261353
0.000000 0.436523 0.601807
0.003143 0.441162 0.603119
0.007874 0.445923 0.604462
0.013397 0.450836 0.606018
0.021271 0.455750 0.607605
0.030731 0.460907 0.609314
0.042511 0.466278 0.611145
0.055573 0.471985 0.613037
0.068939 0.477966 0.614960
0.083801 0.484467 0.616943
0.099915 0.491821 0.618744
0.117401 0.500275 0.620056
0.137146 0.510498 0.620056
0.160217 0.523193 0.617554
0.186707 0.538849 0.611115
0.217133 0.557678 0.598907
0.250977 0.579407 0.579590
0.287231 0.602966 0.552704
0.324677 0.626648 0.518951
0.361908 0.648529 0.480347
0.398438 0.666748 0.439636
0.434479 0.679382 0.399567
0.471130 0.685059 0.362213
