public/cubicle-99.CUBE
# Copyright: (C) Copyright 2010-2020 by IWLTBAP SAS
# Cannot be resold, shared or otherwise redistributed
# Website: https://luts.iwltbap.com
TITLE "IWLTBAP 6800 (Rec.709, sRGB, DCI-P3)"
LUT_3D_SIZE 9
0.000000 0.000000 0.000000
0.123993 0.012604 0.010254
0.248840 0.013428 0.004730
0.372253 0.011047 0.002380
0.493683 0.010254 0.002380
0.611816 0.014191 0.002380
0.725281 0.033905 0.004730
0.834106 0.104919 0.046875
0.941162 0.268646 0.196167
0.006317 0.070526 0.092987
0.117737 0.089142 0.067841
0.245422 0.091309 0.032318
0.377808 0.092987 0.007874
0.504913 0.101868 0.001587
0.624298 0.114319 0.001587
0.736664 0.140594 0.003937
0.843903 0.213867 0.047577
0.949707 0.374237 0.207031
0.003174 0.138885 0.190033
0.096710 0.171234 0.158966
0.222076 0.181549 0.099518
0.364746 0.160706 0.040222
0.504852 0.157959 0.008667
0.632477 0.177155 0.002350
0.748352 0.215515 0.004730
0.855591 0.300598 0.052979
0.959351 0.467194 0.223816
0.000793 0.207031 0.288513
0.065643 0.238953 0.273743
0.178253 0.281586 0.213715
0.321625 0.276215 0.124329
0.479004 0.228760 0.048981
0.624390 0.217468 0.010254
0.750793 0.253845 0.007080
0.863037 0.346771 0.067841
0.968384 0.522827 0.252350
0.000793 0.274994 0.383392
0.040222 0.298248 0.382294
0.129333 0.342468 0.353546
0.261505 0.396301 0.260193
0.418152 0.375488 0.150482
0.588715 0.300476 0.059265
0.738159 0.289948 0.019714
0.863159 0.377380 0.084259
0.975647 0.558777 0.281189
0.000000 0.341003 0.473053
0.026794 0.360443 0.476501
0.090027 0.389038 0.474396
0.200500 0.451111 0.425476
0.345825 0.513947 0.301117
0.512207 0.475525 0.177826
0.693420 0.382019 0.081482
0.846802 0.405182 0.098328
0.978271 0.581482 0.294037
0.000000 0.404938 0.559326
0.022064 0.423767 0.564453
0.071045 0.446075 0.570312
0.150208 0.485992 0.565704
0.281036 0.567261 0.489441
0.430603 0.629944 0.339630
0.601807 0.578094 0.215881
0.794556 0.494568 0.153870
0.965881 0.578430 0.271271
0.000000 0.468201 0.644135
0.022858 0.488434 0.650574
0.071564 0.511566 0.659302
0.133911 0.540649 0.668701
0.227234 0.593689 0.655823
0.365906 0.682678 0.550720
0.509583 0.737030 0.394745
0.692871 0.689911 0.289062
0.921204 0.608948 0.266235
0.000000 0.532928 0.728424
0.031525 0.556061 0.736633
0.087830 0.582855 0.748260
0.148041 0.611115 0.761169
0.206268 0.638885 0.771912
0.286316 0.683716 0.766907
0.438080 0.782593 0.664246
0.598053 0.869080 0.488098
0.838501 0.906555 0.480408
0.005524 0.046875 0.068390
0.097534 0.029968 0.090881
0.210022 0.028381 0.124329
0.335449 0.029968 0.145325
0.461273 0.028381 0.149658
0.583588 0.027588 0.143646
0.703003 0.041748 0.143372
0.820251 0.107147 0.184784
0.937073 0.267914 0.311554
0.004730 0.102234 0.140869
0.095093 0.102997 0.127167
0.210938 0.104523 0.117737
0.334900 0.106049 0.104523
0.459656 0.108978 0.094238
0.584259 0.115356 0.088715
0.707062 0.137421 0.097534
0.827209 0.209076 0.154907
0.946167 0.371307 0.304138
0.000793 0.157440 0.223969
0.078613 0.170532 0.200317
0.207031 0.189636 0.170776
0.352203 0.194733 0.131500
0.486725 0.197357 0.097534
0.611450 0.209656 0.079559
0.729889 0.238953 0.085602
0.844421 0.315887 0.149933
0.957764 0.476837 0.313324
0.000000 0.215332 0.311920
0.048981 0.231262 0.295258
0.162170 0.264374 0.263519
0.322968 0.290314 0.206451
0.481873 0.279053 0.145599
0.623047 0.278229 0.103394
0.747498 0.311096 0.097534
0.860596 0.395874 0.161926
0.968933 0.558838 0.333069
0.000000 0.274841 0.398438
0.026794 0.291595 0.391968
0.109344 0.321747 0.376038
0.255188 0.376984 0.321960
0.428680 0.395355 0.236542
0.595062 0.356232 0.159698
0.740387 0.356842 0.125275
0.864136 0.438843 0.182220
0.976654 0.605133 0.357849
0.000000 0.335358 0.482269
0.016541 0.352814 0.482269
0.073120 0.376526 0.480896
0.183075 0.425873 0.457397
0.347809 0.499207 0.373016
0.525940 0.500336 0.265076
0.699646 0.439392 0.184570
0.849304 0.469635 0.202057
0.979126 0.630188 0.373962
0.000000 0.396942 0.565247
0.012604 0.415314 0.568634
0.057434 0.437439 0.573639
0.136261 0.471710 0.575287
0.267365 0.541840 0.534332
0.439545 0.622223 0.417633
0.616272 0.605469 0.301239
0.800171 0.549072 0.250671
0.967499 0.632233 0.359924
0.000000 0.461273 0.648834
0.016541 0.481384 0.654266
0.062805 0.504913 0.662415
0.128113 0.534088 0.672485
0.217316 0.578796 0.671783
0.357849 0.660645 0.606384
0.523193 0.735107 0.473450
0.708008 0.717285 0.371307
0.924438 0.660126 0.356140
0.000000 0.529572 0.733368
0.030731 0.552643 0.740906
0.087830 0.579132 0.751587
0.150452 0.607971 0.764404
0.209656 0.636902 0.776794
0.281982 0.673462 0.780029
0.427979 0.759888 0.722717
0.617584 0.868317 0.567841
0.841064 0.918945 0.538727
0.003174 0.095490 0.136261
0.080536 0.059875 0.145325
0.175568 0.035492 0.190674
0.298126 0.040222 0.262054
0.434479 0.052979 0.326691
0.567657 0.065063 0.366394
0.693848 0.085602 0.385010
0.815002 0.148865 0.415131
0.935913 0.301239 0.500458
0.002380 0.143127 0.198547
0.077637 0.134796 0.184357
0.176483 0.118073 0.187317
0.295654 0.112549 0.205688
0.421173 0.118744 0.223969
0.548218 0.126862 0.238159
0.678101 0.148865 0.255920
0.809753 0.219421 0.306793
0.942688 0.381165 0.429962
0.000000 0.192505 0.273621
0.066193 0.195953 0.249451
0.180450 0.203033 0.232758
0.322876 0.208527 0.217468
0.452911 0.210938 0.197754
0.573456 0.217834 0.187744
0.695953 0.241974 0.199524
0.823334 0.316803 0.261932
0.954620 0.480103 0.409943
0.000000 0.245117 0.355225
0.042511 0.250061 0.331635
0.145599 0.265656 0.306671
0.311340 0.298767 0.278778
0.475372 0.314270 0.240234
0.611877 0.321289 0.207397
0.733612 0.348419 0.203796
0.850189 0.424255 0.263947
0.967957 0.578430 0.419189
0.000000 0.296783 0.433899
0.021271 0.304993 0.418457
0.096313 0.319122 0.398346
0.244812 0.362793 0.368927
0.434387 0.410522 0.318542
0.601624 0.409271 0.261505
0.741974 0.421082 0.234070
0.863586 0.495483 0.282654
0.977112 0.645111 0.436798
0.000000 0.346680 0.507385
0.010254 0.359344 0.500671
0.061646 0.375122 0.492096
0.172150 0.410553 0.477203
0.349548 0.485016 0.431702
0.541595 0.522827 0.352509
0.709198 0.497009 0.288391
0.852783 0.533875 0.305847
0.979797 0.677002 0.453156
0.000000 0.398956 0.579834
0.007080 0.415070 0.579346
0.046875 0.434570 0.579956
0.130890 0.464172 0.581055
0.264648 0.524750 0.563141
0.452637 0.614655 0.487061
0.636536 0.631165 0.388367
0.809326 0.602295 0.349121
0.969238 0.684845 0.448273
0.000000 0.459442 0.656372
0.013397 0.478668 0.659760
0.059265 0.501526 0.665833
0.131500 0.530975 0.675171
0.223450 0.572632 0.680908
0.364563 0.647797 0.646637
0.544373 0.734436 0.545746
0.728912 0.742432 0.454041
0.929321 0.710480 0.447113
0.000793 0.529755 0.738159
0.035492 0.552124 0.744324
0.097931 0.578094 0.753601
0.165344 0.608093 0.766541
0.228760 0.639709 0.781006
0.300964 0.675903 0.788788
0.438904 0.750977 0.760376
0.643463 0.868286 0.639191
0.851624 0.928833 0.598206
0.000000 0.144501 0.207214
0.065643 0.113983 0.207031
0.152313 0.056213 0.226379
0.254883 0.030762 0.293121
0.382111 0.037872 0.391602
0.517548 0.058655 0.493561
0.656158 0.100311 0.581421
0.794861 0.186279 0.654633
0.929901 0.350189 0.736877
0.000793 0.184998 0.258270
0.063934 0.181122 0.246826
0.150208 0.148041 0.242310
0.259735 0.117737 0.271393
0.391968 0.124329 0.330566
0.529449 0.145874 0.390808
0.664093 0.179352 0.446686
0.800598 0.255920 0.512360
0.940430 0.417786 0.616730
0.000000 0.229919 0.325562
0.059265 0.235870 0.306335
0.153870 0.233765 0.291992
0.283295 0.219788 0.292114
0.418945 0.215149 0.300476
0.546936 0.225342 0.312042
0.672913 0.252014 0.339935
0.807190 0.328674 0.406219
0.951599 0.494080 0.537994
0.000000 0.281433 0.404053
0.044006 0.287109 0.382629
0.135956 0.295898 0.360046
0.286194 0.314728 0.346771
0.452332 0.327789 0.329132
0.588837 0.335327 0.307159
0.710419 0.358734 0.310974
0.833862 0.431549 0.372070
0.965668 0.585968 0.514954
0.000000 0.333069 0.482544
0.026001 0.339935 0.464966
0.100677 0.346558 0.440247
0.238159 0.372833 0.416382
0.431946 0.423126 0.393402
0.603027 0.447571 0.357239
0.738159 0.467621 0.338348
0.858521 0.533997 0.383362
0.976501 0.670563 0.520569
0.000000 0.380524 0.553345
0.013397 0.390259 0.542419
0.068939 0.398956 0.524811
0.176697 0.418457 0.502380
0.356049 0.480896 0.479156
0.558411 0.542847 0.435883
0.721008 0.551025 0.390442
0.856750 0.594116 0.408234
0.980103 0.719788 0.532562
0.000000 0.425140 0.615845
0.009460 0.438141 0.610901
0.054291 0.451660 0.602905
0.141724 0.471771 0.593292
0.279297 0.521515 0.582397
0.475861 0.612518 0.545380
0.662781 0.655975 0.475281
0.822388 0.654388 0.447876
0.971252 0.736023 0.535156
0.000793 0.474396 0.676178
0.019714 0.490936 0.675720
0.070526 0.510223 0.676208
0.149658 0.536316 0.680054
0.249908 0.575958 0.686279
0.394623 0.647827 0.674713
0.579407 0.739197 0.609985
0.756836 0.766846 0.536499
0.936646 0.759735 0.538483
0.005524 0.536377 0.742767
0.053650 0.557343 0.746704
0.122375 0.582520 0.754242
0.197357 0.613739 0.767426
0.268463 0.648438 0.784149
0.346436 0.688232 0.796478
0.481506 0.759094 0.786072
0.682190 0.873840 0.701111
0.872253 0.938293 0.661804
0.000000 0.192932 0.278381
0.046875 0.181580 0.281860
0.135376 0.116730 0.285522
0.233429 0.044739 0.319458
0.341949 0.026031 0.402863
0.465332 0.031555 0.507843
0.588623 0.061066 0.623993
0.723358 0.149139 0.751831
0.875488 0.332764 0.890015
0.000000 0.227570 0.319458
0.051666 0.233093 0.316010
0.131805 0.203033 0.308716
0.233917 0.139740 0.317627
0.352722 0.118408 0.379242
0.494019 0.139740 0.469849
0.636536 0.183929 0.565796
0.777496 0.273071 0.674194
0.923889 0.445160 0.805054
0.000000 0.267365 0.377808
0.051666 0.278625 0.366791
0.134186 0.277710 0.354218
0.247284 0.245422 0.350769
0.378296 0.218384 0.377625
0.521881 0.234741 0.425873
0.663635 0.274719 0.481506
0.801392 0.358246 0.567383
0.946716 0.524048 0.702148
0.000000 0.316010 0.450989
0.043243 0.325897 0.435883
0.128113 0.336212 0.418274
0.256378 0.344360 0.410522
0.413879 0.338013 0.413727
0.561066 0.341217 0.414398
0.692749 0.367462 0.425873
0.821808 0.442383 0.490601
0.961487 0.598328 0.628845
0.000000 0.368439 0.528961
0.031525 0.377716 0.514526
0.109344 0.387482 0.494171
0.235077 0.408173 0.476654
0.415466 0.442688 0.469910
0.589752 0.464325 0.450134
0.726227 0.486237 0.434540
0.848022 0.549011 0.477814
0.973572 0.681244 0.605713
0.000000 0.419464 0.602020
0.022858 0.430206 0.591614
0.090881 0.440247 0.574249
0.198944 0.455170 0.551025
0.367371 0.500732 0.535461
0.569244 0.561737 0.515289
0.729523 0.591644 0.484589
0.857758 0.639282 0.502747
0.978729 0.750458 0.610229
0.001556 0.467346 0.664062
0.026794 0.479919 0.657776
0.087830 0.491943 0.646393
0.178253 0.505524 0.628662
0.311218 0.540527 0.612793
0.505310 0.620148 0.598724
0.690216 0.680176 0.558868
0.836426 0.703552 0.542969
0.972351 0.783020 0.617798
0.013397 0.513885 0.714355
0.052338 0.527771 0.710815
0.113617 0.542725 0.705688
0.192505 0.561096 0.699890
0.293365 0.592560 0.698547
0.442169 0.659912 0.700012
0.624512 0.749756 0.669128
0.788391 0.792480 0.618317
0.944519 0.808350 0.628571
0.047577 0.563446 0.759827
0.103760 0.579529 0.758972
0.170074 0.599731 0.761414
0.243713 0.627289 0.770691
0.320953 0.662506 0.787720
0.410522 0.708130 0.805847
0.548676 0.780701 0.810760
0.731995 0.885986 0.757538
0.895508 0.948029 0.727051
0.000000 0.242615 0.350494
0.030731 0.248383 0.360535
0.111145 0.205719 0.365356
0.222412 0.104553 0.374359
0.321747 0.035492 0.425079
0.432343 0.026031 0.516113
0.552002 0.043243 0.618103
0.671082 0.108276 0.739990
0.804108 0.262817 0.891724
0.000000 0.273468 0.384827
0.039429 0.286957 0.389282
0.112549 0.273621 0.388367
0.218018 0.200104 0.383575
0.327362 0.128418 0.413727
0.449707 0.124969 0.499481
0.590179 0.162415 0.603546
0.732544 0.250061 0.725220
0.880310 0.419678 0.877625
0.000000 0.307892 0.434235
0.044006 0.323547 0.431000
0.117401 0.330231 0.424896
0.221375 0.296783 0.415985
0.343323 0.232941 0.426819
0.476501 0.226898 0.489929
0.631226 0.276062 0.574341
0.783020 0.370728 0.674225
0.929382 0.535400 0.813019
0.000000 0.350677 0.498566
0.038635 0.364471 0.490143
0.117401 0.378296 0.478668
0.229431 0.383728 0.470642
0.373291 0.357941 0.476898
0.520569 0.344269 0.506348
0.670715 0.382355 0.545990
0.812561 0.464661 0.608765
0.950928 0.613800 0.732422
0.000000 0.401062 0.571869
0.032318 0.413147 0.562012
0.110413 0.427094 0.547852
0.226898 0.447815 0.535645
0.388275 0.470123 0.539612
0.558990 0.474091 0.545197
0.707703 0.497162 0.545044
0.837952 0.562134 0.576294
0.966248 0.690063 0.684753
0.000793 0.455231 0.645447
0.033905 0.467651 0.637238
0.109344 0.481384 0.624268
0.218201 0.500275 0.607788
0.374725 0.539276 0.603027
0.563721 0.582581 0.599640
0.725403 0.612213 0.579834
0.853577 0.662781 0.589844
0.973877 0.766632 0.679840
0.011047 0.509766 0.709381
0.056824 0.523132 0.703918
0.128723 0.537567 0.694580
0.223816 0.553711 0.679688
0.352295 0.583923 0.667633
0.530457 0.643921 0.662903
0.708252 0.701874 0.641724
0.846436 0.742981 0.631348
0.970184 0.819763 0.692657
0.056824 0.562927 0.758270
0.111481 0.576447 0.754669
0.177155 0.591064 0.749207
0.254730 0.606476 0.740265
0.351288 0.630463 0.733215
0.492889 0.684998 0.736328
0.665009 0.763428 0.727783
0.815918 0.817505 0.699158
0.948792 0.852478 0.713379
0.138000 0.615265 0.796631
0.191895 0.628326 0.793945
0.248383 0.642456 0.791626
0.308960 0.659576 0.791687
0.380707 0.687073 0.800964
0.480591 0.734863 0.821289
0.620148 0.806763 0.837646
0.779175 0.898285 0.812500
0.911743 0.957520 0.790894
0.000000 0.296021 0.427094
0.018921 0.311707 0.441864
0.084259 0.295654 0.452484
0.199707 0.207611 0.455536
0.317047 0.085175 0.471649
0.410217 0.032349 0.534546
0.522644 0.043243 0.627869
0.646393 0.103790 0.730469
0.775452 0.237854 0.856262
0.000000 0.323792 0.456207
0.028381 0.341309 0.465912
0.091309 0.344055 0.472198
0.195343 0.290436 0.470001
0.317383 0.181122 0.471222
0.423523 0.126221 0.523956
0.547791 0.147797 0.622253
0.689392 0.227234 0.734314
0.842102 0.389099 0.869019
0.000000 0.352814 0.496704
0.034698 0.370911 0.499084
0.101074 0.384674 0.500275
0.196960 0.367096 0.496307
0.322296 0.286041 0.489655
0.442932 0.227051 0.525543
0.580658 0.257385 0.619324
0.741180 0.356445 0.728790
0.904358 0.527649 0.852081
0.000000 0.388306 0.550018
0.033112 0.404510 0.546814
0.105652 0.422241 0.542297
0.205139 0.432678 0.537689
0.339081 0.402069 0.537384
0.481415 0.350769 0.560242
0.626648 0.375763 0.628937
0.786469 0.473541 0.710938
0.938110 0.626038 0.806824
0.000000 0.433533 0.614624
0.031525 0.447601 0.609100
0.105652 0.465118 0.601471
0.212952 0.487549 0.593994
0.357239 0.505829 0.598999
0.521881 0.489624 0.615845
0.675049 0.500641 0.651337
0.822571 0.579041 0.696350
0.958832 0.706482 0.768036
0.002350 0.488037 0.684998
0.042511 0.501709 0.679840
0.117065 0.518494 0.672058
0.223297 0.541290 0.662201
0.368622 0.578583 0.663452
0.544250 0.608795 0.675323
0.706177 0.622925 0.682678
0.844208 0.676849 0.697632
0.969055 0.779663 0.753815
0.031525 0.548340 0.750244
0.085602 0.562408 0.746490
0.158722 0.579254 0.740845
0.254425 0.599670 0.731689
0.382080 0.632629 0.727448
0.546753 0.682190 0.733856
0.721130 0.731689 0.730835
0.849518 0.766174 0.725464
0.967529 0.842865 0.765381
0.114655 0.610596 0.801422
0.170776 0.624664 0.799042
0.235718 0.640381 0.795776
0.313782 0.658142 0.789886
0.412476 0.683594 0.786255
0.543488 0.727417 0.791443
0.695953 0.785095 0.792419
0.836182 0.839722 0.781372
0.951447 0.888794 0.792847
0.235229 0.673798 0.841217
0.284882 0.686340 0.839539
0.336517 0.699310 0.837646
0.392242 0.713867 0.835876
0.459930 0.735474 0.839172
0.553650 0.773315 0.852356
0.679352 0.832184 0.870361
0.816406 0.908508 0.870300
0.922241 0.966980 0.855652
0.000000 0.352936 0.508484
0.010254 0.372467 0.525177
0.061646 0.374542 0.539917
0.165588 0.321198 0.547333
0.305115 0.191284 0.548615
0.410797 0.074677 0.572083
0.501129 0.053009 0.644562
0.624542 0.114685 0.744324
0.765991 0.253387 0.855316
0.000000 0.377289 0.532257
0.019714 0.396149 0.544434
0.072601 0.408600 0.555420
0.167023 0.383942 0.561218
0.300842 0.282257 0.557037
0.420776 0.167969 0.569977
0.523499 0.148865 0.641571
0.657410 0.221375 0.751160
0.812073 0.377625 0.875183
0.000000 0.401398 0.563934
0.027588 0.420288 0.569672
0.086517 0.438385 0.576294
0.173767 0.439636 0.581390
0.300232 0.376526 0.576935
0.433289 0.271393 0.580078
0.550079 0.250061 0.644989
0.697083 0.336090 0.761292
0.868042 0.510651 0.892975
0.000000 0.429657 0.606171
0.029175 0.447296 0.606628
0.095490 0.467926 0.608276
0.186066 0.486542 0.611450
0.308960 0.470490 0.613586
0.457581 0.395782 0.618591
0.591187 0.366974 0.669128
0.743469 0.455811 0.775757
0.916992 0.629059 0.896484
0.000000 0.468353 0.660217
0.030731 0.483856 0.658203
0.100311 0.504089 0.656464
0.199310 0.530304 0.656372
0.327576 0.552185 0.662964
0.488495 0.530731 0.676758
0.641357 0.501190 0.712585
0.790588 0.572906 0.793243
0.950439 0.723694 0.887146
0.006287 0.520325 0.724487
0.048279 0.534668 0.721985
0.119080 0.553589 0.719177
0.219604 0.580109 0.716522
0.353333 0.617310 0.720947
0.518677 0.645508 0.737610
0.681213 0.636963 0.759094
0.825378 0.680359 0.806946
0.967377 0.798248 0.873108
0.054291 0.584045 0.789520
0.107147 0.598328 0.787720
0.175812 0.616425 0.785522
0.268768 0.640564 0.782257
0.393585 0.676086 0.783081
0.551361 0.724121 0.796112
0.710022 0.750854 0.807983
0.847046 0.779785 0.826843
0.971375 0.861145 0.868835
0.168671 0.656555 0.844788
0.220856 0.670532 0.843750
0.282104 0.687073 0.842712
0.359741 0.707611 0.840820
0.461853 0.737122 0.841797
0.591827 0.780151 0.851196
0.729370 0.823578 0.859680
0.862366 0.861938 0.859924
0.964355 0.916229 0.884583
0.326599 0.734192 0.890503
0.372253 0.746216 0.889709
0.420929 0.759277 0.889008
0.477631 0.775635 0.889404
0.551361 0.799805 0.894226
0.641388 0.831726 0.903442
0.744446 0.872070 0.915771
0.855957 0.926025 0.927368
0.948029 0.980042 0.928833
0.000000 0.411560 0.592072
0.005524 0.431885 0.608917
0.044739 0.445465 0.625793
0.134186 0.424011 0.639221
0.274567 0.330902 0.643158
0.423950 0.170074 0.641113
0.500946 0.079590 0.669983
0.605499 0.126556 0.762939
0.758545 0.277435 0.879730
0.000000 0.432343 0.610077
0.013397 0.451294 0.623199
0.059265 0.469727 0.637360
0.142548 0.469147 0.650513
0.272095 0.407318 0.655762
0.427002 0.263824 0.649170
0.522827 0.170532 0.671967
0.635925 0.222931 0.769836
0.795959 0.382812 0.898743
0.000000 0.452118 0.633453
0.023651 0.471130 0.641357
0.075653 0.491821 0.652161
0.155670 0.507843 0.665558
0.274719 0.481232 0.674194
0.430756 0.367767 0.667908
0.547760 0.270020 0.682129
0.669952 0.324554 0.781036
0.837585 0.493805 0.923401
0.000000 0.473969 0.665375
0.028381 0.492615 0.668610
0.089142 0.515411 0.675476
0.172852 0.541779 0.687561
0.285126 0.548981 0.700104
0.440002 0.483856 0.703369
0.582458 0.389923 0.713013
0.711151 0.434448 0.802185
0.880524 0.605255 0.950928
0.000793 0.506104 0.708832
0.033112 0.522583 0.709595
0.097931 0.545044 0.713257
0.190247 0.576172 0.721924
0.305969 0.606476 0.735107
0.459290 0.598572 0.750336
0.624298 0.530975 0.764496
0.759705 0.552460 0.834808
0.918640 0.707336 0.974182
0.011810 0.553741 0.765503
0.054932 0.568573 0.765259
0.120728 0.588989 0.766937
0.215515 0.619598 0.771973
0.339935 0.659393 0.782043
0.494812 0.693939 0.801575
0.663544 0.672791 0.819336
0.804077 0.673279 0.868225
0.947327 0.795654 0.987152
0.076172 0.619446 0.829102
0.125580 0.633545 0.828796
0.189209 0.652466 0.829681
0.278900 0.679993 0.832336
0.400604 0.718445 0.838379
0.552979 0.768005 0.854736
0.709259 0.790527 0.872253
0.843384 0.791718 0.903015
0.968994 0.872864 0.992554
0.221375 0.702881 0.888855
0.268188 0.716309 0.888916
0.324677 0.733124 0.889832
0.400604 0.755951 0.891632
0.503601 0.788391 0.896271
0.634735 0.833435 0.908447
0.766846 0.873230 0.922882
0.880585 0.893188 0.941650
0.984070 0.940704 0.995239
0.414154 0.795319 0.942139
0.454956 0.806702 0.942200
0.499481 0.819702 0.942810
0.555603 0.837189 0.944916
0.633606 0.863525 0.951019
0.728516 0.896790 0.960693
0.824951 0.931580 0.972107
0.913300 0.965454 0.985291
0.990692 0.999390 1.000000
