public/cubicle-99.CUBE
# Copyright: (C) Copyright 2010-2020 by IWLTBAP SAS
# Cannot be resold, shared or otherwise redistributed
# Website: https://luts.iwltbap.com
TITLE "IWLTBAP 6800 (Rec.709, sRGB, DCI-P3)"
LUT_3D_SIZE 5
0.000000 0.000000 0.000000
0.248840 0.013428 0.004730
0.493683 0.010254 0.002380
0.725281 0.033905 0.004730
0.941162 0.268646 0.196167
0.003174 0.138885 0.190033
0.222076 0.181549 0.099518
0.504852 0.157959 0.008667
0.748352 0.215515 0.004730
0.959351 0.467194 0.223816
0.000793 0.274994 0.383392
0.129333 0.342468 0.353546
0.418152 0.375488 0.150482
0.738159 0.289948 0.019714
0.975647 0.558777 0.281189
0.000000 0.404938 0.559326
0.071045 0.446075 0.570312
0.281036 0.567261 0.489441
0.601807 0.578094 0.215881
0.965881 0.578430 0.271271
0.000000 0.532928 0.728424
0.087830 0.582855 0.748260
0.206268 0.638885 0.771912
0.438080 0.782593 0.664246
0.838501 0.906555 0.480408
0.003174 0.095490 0.136261
0.175568 0.035492 0.190674
0.434479 0.052979 0.326691
0.693848 0.085602 0.385010
0.935913 0.301239 0.500458
0.000000 0.192505 0.273621
0.180450 0.203033 0.232758
0.452911 0.210938 0.197754
0.695953 0.241974 0.199524
0.954620 0.480103 0.409943
0.000000 0.296783 0.433899
0.096313 0.319122 0.398346
0.434387 0.410522 0.318542
0.741974 0.421082 0.234070
0.977112 0.645111 0.436798
0.000000 0.398956 0.579834
0.046875 0.434570 0.579956
0.264648 0.524750 0.563141
0.636536 0.631165 0.388367
0.969238 0.684845 0.448273
0.000793 0.529755 0.738159
0.097931 0.578094 0.753601
0.228760 0.639709 0.781006
0.438904 0.750977 0.760376
0.851624 0.928833 0.598206
0.000000 0.192932 0.278381
0.135376 0.116730 0.285522
0.341949 0.026031 0.402863
0.588623 0.061066 0.623993
0.875488 0.332764 0.890015
0.000000 0.267365 0.377808
0.134186 0.277710 0.354218
0.378296 0.218384 0.377625
0.663635 0.274719 0.481506
0.946716 0.524048 0.702148
0.000000 0.368439 0.528961
0.109344 0.387482 0.494171
0.415466 0.442688 0.469910
0.726227 0.486237 0.434540
0.973572 0.681244 0.605713
0.001556 0.467346 0.664062
0.087830 0.491943 0.646393
0.311218 0.540527 0.612793
0.690216 0.680176 0.558868
0.972351 0.783020 0.617798
0.047577 0.563446 0.759827
0.170074 0.599731 0.761414
0.320953 0.662506 0.787720
0.548676 0.780701 0.810760
0.895508 0.948029 0.727051
0.000000 0.296021 0.427094
0.084259 0.295654 0.452484
0.317047 0.085175 0.471649
0.522644 0.043243 0.627869
0.775452 0.237854 0.856262
0.000000 0.352814 0.496704
0.101074 0.384674 0.500275
0.322296 0.286041 0.489655
0.580658 0.257385 0.619324
0.904358 0.527649 0.852081
0.000000 0.433533 0.614624
0.105652 0.465118 0.601471
0.357239 0.505829 0.598999
0.675049 0.500641 0.651337
0.958832 0.706482 0.768036
0.031525 0.548340 0.750244
0.158722 0.579254 0.740845
0.382080 0.632629 0.727448
0.721130 0.731689 0.730835
0.967529 0.842865 0.765381
0.235229 0.673798 0.841217
0.336517 0.699310 0.837646
0.459930 0.735474 0.839172
0.679352 0.832184 0.870361
0.922241 0.966980 0.855652
0.000000 0.411560 0.592072
0.044739 0.445465 0.625793
0.274567 0.330902 0.643158
0.500946 0.079590 0.669983
0.758545 0.277435 0.879730
0.000000 0.452118 0.633453
0.075653 0.491821 0.652161
0.274719 0.481232 0.674194
0.547760 0.270020 0.682129
0.837585 0.493805 0.923401
0.000793 0.506104 0.708832
0.097931 0.545044 0.713257
0.305969 0.606476 0.735107
0.624298 0.530975 0.764496
0.918640 0.707336 0.974182
0.076172 0.619446 0.829102
0.189209 0.652466 0.829681
0.400604 0.718445 0.838379
0.709259 0.790527 0.872253
0.968994 0.872864 0.992554
0.414154 0.795319 0.942139
0.499481 0.819702 0.942810
0.633606 0.863525 0.951019
0.824951 0.931580 0.972107
0.990692 0.999390 1.000000
